storage/app/icons/phosphoricons/bold/paint-brush-broad-bold.svg

<svg xmlns="http://www.w3.org/2000/svg" fill="currentColor" viewBox="0 0 256 256"><path d="M216 20H72a44.05 44.05 0 0 0-44 44v72a28 28 0 0 0 28 28h39.64L92 207v1a36 36 0 0 0 72 0v-1l-3.6-43H200a28 28 0 0 0 28-28V32a12 12 0 0 0-12-12M72 44h88v24a12 12 0 0 0 24 0V44h20v52H52V64a20 20 0 0 1 20-20m128 96h-44a20 20 0 0 0-19.85 22.4l3.84 46a12 12 0 0 1-24 0l3.84-46A20 20 0 0 0 100 140H56a4 4 0 0 1-4-4v-16h152v16a4 4 0 0 1-4 4"/></svg>

<svg xmlns="http://www.w3.org/2000/svg" viewBox="0 0 256 256" fill="currentColor"><path d="M216,20H72A44.05,44.05,0,0,0,28,64v72a28,28,0,0,0,28,28H95.64L92,207c0,.33,0,.67,0,1a36,36,0,0,0,72,0c0-.33,0-.67,0-1l-3.6-43H200a28,28,0,0,0,28-28V32A12,12,0,0,0,216,20ZM72,44h88V68a12,12,0,0,0,24,0V44h20V96H52V64A20,20,0,0,1,72,44Zm128,96H156a20,20,0,0,0-19.85,22.4l3.84,46a12,12,0,0,1-24,0l3.84-46A20,20,0,0,0,100,140H56a4,4,0,0,1-4-4V120H204v16A4,4,0,0,1,200,140Z"/></svg>
